digitransit-component/packages/digitransit-component-icon/src/assets/funicular.svg

<svg width="24" height="24" viewBox="0 0 24 24" xmlns="http://www.w3.org/2000/svg">
  <rect x="3.25882" y="16" width="18.0056" height="1" rx="0.5" transform="rotate(15 3.25882 16)"/>
  <path d="M6 4.5C6 4.22386 6.22386 4 6.5 4H19.5913C19.8675 4 20.0913 4.22386 20.0913 4.5V5.7C20.0913 5.86569 19.957 6 19.7913 6H6.2C6.08954 6 6 5.91046 6 5.8V4.5Z"/>
  <rect x="12.2628" y="13.6105" width="9.39423" height="0.8" transform="rotate(-70 12.2628 13.6105)"/>
  <path d="M8.08574 13H17.7628C18.039 13 18.2628 13.2239 18.2628 13.5V14.8882C18.2628 14.9618 18.2466 15.0345 18.2152 15.1012L17.0857 17.5L7.08574 15L8.08574 13Z"/>
  <rect x="6.60338" y="14" width="12" height="1.8" rx="0.9" transform="rotate(15 6.60338 14)"/>
  <path fill-rule="evenodd" clip-rule="evenodd" d="M17.0857 14.1771L20.0857 5.5657H6.23964C6.11486 5.5657 6.02055 5.67871 6.04287 5.80148L7.56571 14.1771H17.0857ZM9.58574 6C9.3096 6 9.08574 6.22386 9.08574 6.5V12.5C9.08574 12.7761 9.3096 13 9.58574 13H16.2334C16.4447 13 16.6332 12.8672 16.7043 12.6682L19.0857 6H9.58574Z"/>
</svg>

<svg xmlns="http://www.w3.org/2000/svg" width="24" height="24" viewBox="0 0 24 24">
 <rect width="18.006" height="1" x="3.259" y="16" rx=".5" transform="rotate(15 3.259 16)"/>
 <path d="M6 4.5a.5.5 0 0 1 .5-.5h13.091a.5.5 0 0 1 .5.5v1.2a.3.3 0 0 1-.3.3H6.2a.2.2 0 0 1-.2-.2z"/>
 <path d="m12.263 13.61 3.213-8.827.752.274-3.213 8.827z"/>
 <path d="M8.086 13h9.677a.5.5 0 0 1 .5.5v1.388a.5.5 0 0 1-.048.213l-1.13 2.399-10-2.5z"/>
 <rect width="12" height="1.8" x="6.603" y="14" rx=".9" transform="rotate(15 6.603 14)"/>
 <path fill-rule="evenodd" d="m17.086 14.177 3-8.611H6.24a.2.2 0 0 0-.197.235l1.523 8.376zM9.586 6a.5.5 0 0 0-.5.5v6a.5.5 0 0 0 .5.5h6.647a.5.5 0 0 0 .471-.332L19.086 6z" clip-rule="evenodd"/>
</svg>
